public/img/wedding-section-icon.svg

<?xml version="1.0" encoding="UTF-8" standalone="no"?>
<svg width="200px" height="175px" viewBox="0 0 200 175" version="1.1" xmlns="http://www.w3.org/2000/svg" xmlns:xlink="http://www.w3.org/1999/xlink" xmlns:sketch="http://www.bohemiancoding.com/sketch/ns">
    <!-- Generator: Sketch 3.3.1 (12002) - http://www.bohemiancoding.com/sketch -->
    <title>Untitled</title>
    <desc>Created with Sketch.</desc>
    <defs>
        <path id="path-1" d="M0.235294118,0.520781459 L200,0.520781459 L200,177.211071 L0.235294118,177.211071 L0.235294118,0.520781459 Z"></path>
    </defs>
    <g id="Page-1" stroke="none" stroke-width="1" fill="none" fill-rule="evenodd" sketch:type="MSPage">
        <g id="wedding16" sketch:type="MSLayerGroup">
            <path d="M119.745098,16.4111281 L120.388235,17.0864777 L116.282353,20.9069144 L115.654902,20.215859 L119.745098,16.4111281 Z" id="Fill-1" fill="#AF78C7" sketch:type="MSShapeGroup"></path>
            <path d="M113.494118,13.9139054 L113.909804,19.4933921 L113.003922,19.5719211 L112.576471,13.9728021 L113.494118,13.9139054 Z" id="Fill-2" fill="#AF78C7" sketch:type="MSShapeGroup"></path>
            <path d="M162.101961,38.1440337 C166.054902,40.4920513 179.243137,48.2978357 181.388235,49.5425206 C183.517647,50.7832791 176.976471,54.9845815 176.760784,59.5274852 C176.501961,65.7391304 180.007843,61.4278874 180.007843,61.4278874 L182.047059,58.0236545 C186.490196,50.4927217 190.105882,44.4027964 182.827451,40.0954798 L178.309804,37.441199 C178.309804,37.441199 172.992157,35.4308562 167.831373,21.2288834 C164.215686,25.493009 167.556863,31.0764221 167.556863,31.0764221 C167.556863,31.0764221 163.45098,25.0610994 161.701961,25.5362 C161.701961,25.5362 158.133333,35.8156483 162.101961,38.1440337 L162.101961,38.1440337 Z" id="Fill-3" fill="#a3a3a3" sketch:type="MSShapeGroup"></path>
            <path d="M107.2,17.4241525 L111.427451,21.0757518 L110.815686,21.7785865 L106.588235,18.1309136 L107.2,17.4241525 Z" id="Fill-4" fill="#AF78C7" sketch:type="MSShapeGroup"></path>
            <path d="M86.6745098,7.16433633 C82.9803922,2.7470791 76.5019608,4.61606972 75.9176471,9.89321969 L75.9647059,9.89321969 C75.4588235,14.6324459 79.5490196,17.6558131 83.3333333,20.5849454 L83.3176471,20.5849454 C83.3176471,20.5849454 85.372549,22.1005554 86.2431373,22.9604482 C86.3529412,23.0703888 86.5058824,23.1292856 86.6588235,23.1292856 L86.6862745,23.1292856 C86.854902,23.1292856 86.9960784,23.0703888 87.1019608,22.9604482 C87.7764706,22.3008044 88.9254902,21.3977207 89.5215686,20.9658111 C89.5843137,20.9226202 89.9803922,20.6281364 90.027451,20.5849454 C93.5647059,17.8089446 97.9333333,14.7384601 97.3803922,9.89321969 L97.4431373,9.89321969 C96.8588235,4.64748133 90.3803922,2.7156675 86.6745098,7.16433633 L86.6745098,7.16433633 Z" id="Fill-5" fill="#AF78C7" sketch:type="MSShapeGroup"></path>
            <g id="Group-11">
                <mask id="mask-2" sketch:name="Clip 7" fill="white">
                    <use xlink:href="#path-1"></use>
                </mask>
                <g id="Clip-7"></g>
                <path d="M80.3764706,72.8695652 C73.1921569,73.6509289 66.9098039,72.1942157 61.854902,67.9929132 C60.8,60.0614825 59.8823529,52.0868608 58.9921569,44.1279448 C58.254902,37.441199 54.0431373,31.7360659 46.7372549,31.6889485 C40.6235294,31.6418311 33.5647059,37.24095 34.3137255,43.9591075 C35.7215686,56.7514844 37.2078431,69.5556407 39.1254902,82.2891209 L17.0352941,125.586095 L44.5921569,126.045489 L44.5921569,163.484198 C44.5921569,174.113101 61.0431373,174.113101 61.0431373,163.484198 L61.0431373,126.320341 L66.1294118,126.414576 L66.0078431,84.7863436 C70.4666667,86.1370427 75.2745098,86.6121433 80.3921569,86.0467343 C88.7254902,85.1397242 88.8156863,71.9507757 80.3764706,72.8695652 L80.3764706,72.8695652 Z" id="Fill-6" fill="#a3a3a3" sketch:type="MSShapeGroup" mask="url(#mask-2)"></path>
                <path d="M193.537255,151.767669 C186.396078,149.451063 179.227451,147.134457 172.07451,144.817851 C160.4,140.078625 158.439216,132.842176 157.721569,130.52557 C158.654902,128.605535 158.454902,123.697472 158.454902,123.532561 C158.211765,111.780693 158.717647,94.6495882 168.396078,86.6121433 C174.266667,81.7511971 173.298039,71.7819383 168.290196,66.8110515 C165.227451,63.775905 161.490196,62.6254549 157.796078,62.9474239 C148.345098,55.6167401 138.635294,48.6198046 128.737255,41.874162 L128.737255,14.9072975 L122.960784,14.9072975 L122.960784,32.1483432 L119.239216,32.1483432 C119.623529,31.3198621 119.85098,30.4442636 119.85098,29.4783566 C119.85098,27.208868 118.611765,25.2299368 116.803922,24.1266041 L113.541176,20.7537828 L110.356863,24.1423099 C108.564706,25.2456426 107.321569,27.208868 107.321569,29.4940624 C107.321569,30.4442636 107.537255,31.3355679 107.933333,32.1483432 L106.219608,32.1483432 L106.219608,42.0429994 L112.023529,42.0429994 C109.772549,46.0754645 109.972549,51.6745834 114.890196,54.9728021 C124.066667,61.1216242 145.313725,76.7488987 146.584314,77.7462172 L136.870588,91.3984869 L137.529412,81.7040797 C132.827451,91.82647 130.972549,103.884601 130.545098,114.878663 C126.164706,114.772649 121.8,114.725532 117.415686,114.709826 C113.662745,114.709826 109.039216,117.532944 108.439216,121.581115 C105.819608,139.159835 110.721569,155.800134 120.556863,170.449722 C127.219608,180.387569 143.380392,171.046543 136.643137,161.030167 C131.188235,152.886708 126.607843,143.376844 126.086275,133.454702 C129.137255,133.486114 132.2,133.560716 135.262745,133.682436 C136.658824,134.832886 138.313725,135.677073 140.011765,136.230703 C143.627451,147.212986 150.568627,157.472802 161.870588,161.108696 C170.756863,164.006416 179.654902,166.876652 188.572549,169.758667 C200.047059,173.469163 204.933333,155.446753 193.537255,151.767669 L193.537255,151.767669 Z M117.8,32.1483432 L109.403922,32.1483432 C108.913725,31.3826853 108.623529,30.4599694 108.623529,29.4940624 C108.623529,27.4994254 109.835294,25.7835664 111.533333,24.9864968 L115.686275,24.970791 C117.403922,25.7678606 118.596078,27.487646 118.596078,29.4940624 C118.580392,30.4756752 118.27451,31.3826853 117.8,32.1483432 L117.8,32.1483432 Z M136.211765,111.321299 C135.188235,111.321299 134.345098,109.648631 134.345098,107.579391 C134.345098,105.510151 135.188235,103.837483 136.211765,103.837483 C137.239216,103.837483 138.082353,105.494446 138.082353,107.579391 C138.082353,109.648631 137.239216,111.321299 136.211765,111.321299 L136.211765,111.321299 Z M137.14902,102.930473 C136.121569,102.930473 135.278431,101.261731 135.278431,99.1885654 C135.278431,97.1193258 136.121569,95.4623635 137.14902,95.4623635 C138.172549,95.4623635 139.015686,97.1193258 139.015686,99.1885654 C139.015686,101.261731 138.172549,102.930473 137.14902,102.930473 L137.14902,102.930473 Z" id="Fill-8" fill="#a3a3a3" sketch:type="MSShapeGroup" mask="url(#mask-2)"></path>
                <path d="M20.5098039,42.0587052 C26.9921569,42.6241142 29.7960784,38.4974143 30.6509804,32.08552 C31.7098039,23.1135798 29.5647059,17.0118751 31.2352941,11.3185214 C32.5529412,11.4598736 33.8235294,11.7190193 35.1098039,11.9624593 C34.6980392,13.2817468 34.4666667,14.6952691 34.4666667,16.1519824 C34.4666667,23.8046351 40.654902,30.0005746 48.2980392,30.0005746 C55.945098,30.0005746 62.1333333,23.8046351 62.1333333,16.1519824 C62.1333333,8.49932963 55.945098,2.30339016 48.2980392,2.30339016 C44.7137255,2.30339016 41.4509804,3.68157441 38.9843137,5.91965141 C29.1686275,-4.67783949 17.3411765,1.48668837 21.8588235,14.2790653 C27.4509804,30.0319862 30.7294118,40.6608887 20.5098039,42.0587052 L20.5098039,42.0587052 Z" id="Fill-9" fill="#a3a3a3" sketch:type="MSShapeGroup" mask="url(#mask-2)"></path>
                <path d="M6.90980392,68.8213944 C4.54901961,65.9825704 0.368627451,67.1644321 -5.57550967e-16,70.568665 L0.031372549,70.568665 C-0.321568627,73.6234438 2.34509804,75.523846 4.76470588,77.4242482 C4.82352941,77.518483 6.78431373,79.0655047 6.9254902,79.0655047 C7.03137255,79.0655047 9.00784314,77.4870714 9.05490196,77.4242482 C11.5058824,75.5395518 14.0784314,73.6509289 13.772549,70.5529592 L13.8039216,70.5529592 C13.4509804,67.1487263 9.23529412,66.013982 6.90980392,68.8213944 L6.90980392,68.8213944 Z" id="Fill-10" fill="#AF78C7" sketch:type="MSShapeGroup" mask="url(#mask-2)"></path>
            </g>
        </g>
    </g>
</svg>

<?xml version="1.0" encoding="UTF-8" standalone="no"?>
<svg xmlns:sketch="http://www.bohemiancoding.com/sketch/ns" xmlns="http://www.w3.org/2000/svg" height="175px" width="200px" version="1.1" xmlns:xlink="http://www.w3.org/1999/xlink" viewBox="0 0 200 175"><!-- Generator: Sketch 3.3.1 (12002) - http://www.bohemiancoding.com/sketch -->
 <title>Untitled</title>
 <desc>Created with Sketch.</desc>
 <defs>
  <path id="path-1" d="m0.23529 0.52078h199.76v176.69h-199.76l-0.00471-176.69z"/>
 </defs>
 <g id="Page-1" fill-rule="evenodd" sketch:type="MSPage" fill="none">
  <g id="wedding16" sketch:type="MSLayerGroup">
   <path id="Fill-1" sketch:type="MSShapeGroup" fill="#AF78C7" d="m119.75 16.411l0.64 0.675-4.11 3.821-0.63-0.691 4.1-3.805z"/>
   <path id="Fill-2" sketch:type="MSShapeGroup" fill="#AF78C7" d="m113.49 13.914l0.42 5.579-0.91 0.079-0.42-5.599 0.91-0.059z"/>
   <path id="Fill-3" sketch:type="MSShapeGroup" fill="#a3a3a3" d="m162.1 38.144c3.95 2.348 17.14 10.154 19.29 11.399 2.13 1.24-4.41 5.442-4.63 9.984-0.26 6.212 3.25 1.901 3.25 1.901l2.04-3.404c4.44-7.531 8.06-13.621 0.78-17.929l-4.52-2.654s-5.32-2.01-10.48-16.212c-3.61 4.264-0.27 9.847-0.27 9.847s-4.11-6.015-5.86-5.54c0 0-3.57 10.28 0.4 12.608z"/>
   <path id="Fill-4" sketch:type="MSShapeGroup" fill="#AF78C7" d="m107.2 17.424l4.23 3.652-0.61 0.703-4.23-3.648 0.61-0.707z"/>
   <path id="Fill-5" sketch:type="MSShapeGroup" fill="#AF78C7" d="m86.675 7.1643c-3.695-4.4172-10.173-2.5482-10.757 2.7289h0.047c-0.506 4.7388 3.584 7.7628 7.368 10.692h-0.015s2.055 1.516 2.925 2.375c0.11 0.11 0.263 0.169 0.416 0.169h0.027c0.169 0 0.31-0.059 0.416-0.169 0.674-0.659 1.823-1.562 2.42-1.994 0.062-0.043 0.458-0.338 0.505-0.381 3.538-2.776 7.906-5.847 7.353-10.692l0.063 0.0002c-0.584-5.2457-7.063-7.1775-10.768-2.7289z"/>
   <g id="Group-11">
    <mask id="mask-2" sketch:name="Clip 7" fill="white">
     <use xlink:href="#path-1"/>
    </mask>
    <path id="Fill-6" sketch:type="MSShapeGroup" fill="#a3a3a3" mask="url(#mask-2)" d="m80.376 72.87c-7.184 0.781-13.466-0.676-18.521-4.877-1.055-7.932-1.973-15.906-2.863-23.865-0.737-6.687-4.949-12.392-12.255-12.439-6.113-0.047-13.172 5.552-12.423 12.27 1.408 12.792 2.894 25.597 4.811 38.33l-22.09 43.301 27.557 0.46v37.43c0 10.63 16.451 10.63 16.451 0v-37.16l5.086 0.09-0.121-41.624c4.459 1.351 9.267 1.826 14.384 1.261 8.333-0.907 8.424-14.096-0.016-13.177z"/>
    <path id="Fill-8" sketch:type="MSShapeGroup" fill="#a3a3a3" mask="url(#mask-2)" d="m193.54 151.77c-7.14-2.32-14.31-4.64-21.47-6.95-11.67-4.74-13.63-11.98-14.35-14.29 0.93-1.92 0.73-6.83 0.73-7-0.24-11.75 0.27-28.88 9.95-36.918 5.87-4.861 4.9-14.83-0.11-19.801-3.06-3.035-6.8-4.186-10.49-3.864-9.45-7.33-19.16-14.327-29.06-21.073v-26.967h-5.78v17.241h-3.72c0.38-0.828 0.61-1.704 0.61-2.67 0-2.269-1.24-4.248-3.05-5.351l-3.26-3.373-3.18 3.388c-1.8 1.104-3.04 3.067-3.04 5.352 0 0.95 0.22 1.842 0.61 2.654h-1.71v9.895h5.8c-2.25 4.032-2.05 9.632 2.87 12.93 9.18 6.149 30.42 21.776 31.69 22.773l-9.71 13.652 0.66-9.694c-4.7 10.122-6.56 22.176-6.98 33.176-4.39-0.11-8.75-0.15-13.13-0.17-3.76 0-8.38 2.82-8.98 6.87-2.62 17.58 2.28 34.22 12.12 48.87 6.66 9.94 22.82 0.6 16.08-9.42-5.45-8.14-10.03-17.65-10.55-27.58 3.05 0.04 6.11 0.11 9.17 0.23 1.4 1.15 3.05 2 4.75 2.55 3.62 10.98 10.56 21.24 21.86 24.88 8.89 2.9 17.78 5.77 26.7 8.65 11.48 3.71 16.36-14.31 4.97-17.99zm-75.74-119.62h-8.4c-0.49-0.765-0.78-1.688-0.78-2.654 0-1.995 1.22-3.71 2.91-4.508l4.16-0.015c1.71 0.797 2.91 2.517 2.91 4.523-0.02 0.982-0.33 1.889-0.8 2.654zm18.41 79.172c-1.02 0-1.86-1.67-1.86-3.74s0.84-3.74 1.86-3.74c1.03 0 1.87 1.65 1.87 3.74 0 2.07-0.84 3.74-1.87 3.74zm0.94-8.39c-1.03 0-1.87-1.67-1.87-3.741 0-2.07 0.84-3.727 1.87-3.727 1.02 0 1.87 1.657 1.87 3.727 0 2.071-0.85 3.741-1.87 3.741z"/>
    <path id="Fill-9" sketch:type="MSShapeGroup" fill="#a3a3a3" mask="url(#mask-2)" d="m20.51 42.059c6.482 0.565 9.286-3.562 10.141-9.973 1.059-8.972-1.086-15.074 0.584-20.767 1.318 0.141 2.589 0.4 3.875 0.643-0.412 1.32-0.643 2.733-0.643 4.19 0 7.653 6.188 13.849 13.831 13.849 7.647 0 13.835-6.196 13.835-13.849 0-7.6527-6.188-13.849-13.835-13.849-3.584 0.0004-6.847 1.3786-9.314 3.6167-9.815-10.598-21.643-4.433-17.125 8.3593 5.592 15.753 8.87 26.382-1.349 27.78z"/>
    <path id="Fill-10" sketch:type="MSShapeGroup" fill="#AF78C7" mask="url(#mask-2)" d="m6.9098 68.821c-2.3608-2.838-6.5412-1.657-6.9098 1.748h0.031373c-0.35294 3.054 2.3137 4.955 4.7333 6.855 0.0588 0.094 2.0196 1.642 2.1608 1.642 0.1059 0 2.0823-1.579 2.1294-1.642 2.4511-1.884 5.0231-3.773 4.7181-6.871h0.031c-0.353-3.404-4.5687-4.539-6.8942-1.732z"/>
   </g>
  </g>
 </g>
</svg>
